src/assets/icons/navigation.svg

<svg width="24" height="24" viewBox="0 0 24 24" fill="none" xmlns="http://www.w3.org/2000/svg">
  <path
    d="M21.6791 2.28815C21.3939 2.00384 21.0137 1.90907 20.6334 2.09861L2.57041 10.6278C2.19014 10.8173 2 11.1964 2 11.5755C2 11.9545 2.28521 12.3336 2.76055 12.4284L9.7956 14.229L11.6019 21.2419C11.697 21.6209 12.0772 21.9052 12.4575 22H12.5526C12.9329 22 13.2181 21.8105 13.4082 21.4314L21.9643 3.42537C22.0594 2.95153 21.9643 2.57245 21.6791 2.28815Z"
    fill="#379AFF"/>
</svg>

<svg xmlns="http://www.w3.org/2000/svg" width="24" height="24" fill="none" viewBox="0 0 24 24">
  <path fill="#379AFF" d="M21.68 2.288c-.286-.284-.666-.379-1.047-.19L2.57 10.629c-.38.19-.57.568-.57.947 0 .38.285.759.76.853l7.036 1.801 1.806 7.013c.095.379.475.663.855.758h.096c.38 0 .665-.19.855-.569l8.556-18.006c.095-.473 0-.853-.285-1.137Z"/>
</svg>
